X:1
T:Title
%%score { ( 1 3 ) | ( 2 4 ) }
L:1/8
M:4/4
K:F
V:1 treble nm="Grand Piano"
V:3 treble 
V:2 bass 
V:4 bass 
V:1
 z4 z2 z[Q:1/4=86] C | C>F F>G A>B A>A | [EG]>[DF] [EG]>[^CEA] [B,DF]>D =C>C | C>F F>G A>B A>F | %4
[M:7/8] [FA] [FA]2 [EG]2 F2 |[M:1/8] C |[M:4/4] CF F>G A A2 F | [DG][DF] [DF]/D/D D/F/ C2 C | %8
 CF F>G A A2 F |[M:7/8] z z2 [EG]2 z2 |[M:1/8] C |[M:4/4] CF F>G A A2 F | %12
 [DG][DF] [DF]/D/D D/F/ C2 C | CF F>G A A2 F |[M:7/8] z z2 [EG]2 z2 |] %15
V:2
 z4 z2 z [F,A,] | [F,A,]>[F,A,C] [F,A,C]>[F,B,C] [F,CF]>[F,CF] [F,CF]>[F,CF] | %2
 [C,C]>[C,C] [C,C]>A,, B,,>[B,,F,B,] [F,A,]>[F,A,] | %3
 [F,A,]>[F,A,C] [F,A,C]>[F,B,C] [F,CF]>[F,CF] [F,CF]>[F,A,] |[M:7/8] [C,C] [C,C]2 [C,B,]2 [F,A,]2 | %5
[M:1/8] [F,A,] |[M:4/4] [F,A,][F,A,C] [F,A,C]>[F,B,C] [F,CF] [F,CF]2 [F,A,C] | %7
 [B,,B,][B,,B,] [B,,B,]/[B,,F,B,]/[B,,F,B,] [B,,F,B,]/[B,,F,B,]/ [F,A,]2 [F,A,] | %8
 [F,A,][F,A,C] [F,A,C]>[F,B,C] [F,CF] [F,CF]2 [F,A,] |[M:7/8] [C,C] [C,C]2 C z [F,A,]2 | %10
[M:1/8] [F,A,] |[M:4/4] [F,A,][F,A,C] [F,A,C]>[F,B,C] [F,CF] [F,CF]2 [F,A,C] | %12
 [B,,B,][B,,B,] [B,,B,]/[B,,F,B,]/[B,,F,B,] [B,,F,B,]/[B,,F,B,]/ [F,A,]2 [F,A,] | %13
 [F,A,][F,A,C] [F,A,C]>[F,B,C] [F,CF] [F,CF]2 [F,A,] |[M:7/8] [C,C] [C,C]2 C z [F,A,]2 |] %15
V:3
 x8 | x8 | x8 | x8 |[M:7/8] x7 |[M:1/8] x |[M:4/4] x8 | x8 | x8 |[M:7/8] [FA] [FA]2 z B, F2 | %10
[M:1/8] x |[M:4/4] x8 | x8 | x8 |[M:7/8] [FA] [FA]2 z B, F2 |] %15
V:4
 x8 | x8 | x8 | x8 |[M:7/8] x7 |[M:1/8] x |[M:4/4] x8 | x8 | x8 |[M:7/8] z z2 C,2 z2 |[M:1/8] x | %11
[M:4/4] x8 | x8 | x8 |[M:7/8] z z2 C,2 z2 |] %15

